symbolic/64x64/apps/utilities-log-viewer.svg

<svg xmlns="http://www.w3.org/2000/svg" width="64" height="64" version="1">
 <rect style="fill:#325f78" width="44" height="56" x="-54" y="-60" rx="3" ry="3" transform="matrix(0,-1,-1,0,0,0)"/>
 <rect style="opacity:0.2" width="36" height="48" x="-50" y="-56" rx="0" ry="0" transform="matrix(0,-1,-1,0,0,0)"/>
 <path style="opacity:0.1;fill:#ffffff" d="M 7 10 C 5.338 10 4 11.338 4 13 L 4 14 C 4 12.338 5.338 11 7 11 L 57 11 C 58.662 11 60 12.338 60 14 L 60 13 C 60 11.338 58.662 10 57 10 L 7 10 z"/>
 <path style="opacity:0.2" d="m 4,51 0,1 c 0,1.662 1.338,3 3,3 l 50,0 c 1.662,0 3,-1.338 3,-3 l 0,-1 c 0,1.662 -1.338,3 -3,3 L 7,54 C 5.338,54 4,52.662 4,51 Z"/>
 <circle style="fill:#cc5e55" cx="48" cy="46" r="16"/>
 <rect style="fill:#ffffff" width="4" height="12" x="46" y="38"/>
 <rect style="fill:#ffffff" width="4" height="4" x="46" y="54"/>
 <path style="opacity:0.2" d="M 32.025391,46.5 A 16,16.003789 0 0 0 32,46.996211 16,16.003789 0 0 0 48,63 16,16.003789 0 0 0 64,46.996211 16,16.003789 0 0 0 63.982422,46.503907 16,16.003789 0 0 1 48,61.999763 16,16.003789 0 0 1 32.025391,46.5 Z"/>
</svg>

<svg xmlns="http://www.w3.org/2000/svg" width="64" height="64" version="1"><rect style="fill:#325f78" width="44" height="56" x="-54" y="-60" rx="3" ry="3" transform="matrix(0 -1 -1 0 0 0)"/><rect style="opacity:.2" width="36" height="48" x="-50" y="-56" rx="0" ry="0" transform="matrix(0 -1 -1 0 0 0)"/><path style="opacity:.1;fill:#fff" d="M7 10c-1.662 0-3 1.338-3 3v1c0-1.662 1.338-3 3-3h50c1.662 0 3 1.338 3 3v-1c0-1.662-1.338-3-3-3H7z"/><path style="opacity:.2" d="M4 51v1c0 1.662 1.338 3 3 3h50c1.662 0 3-1.338 3-3v-1c0 1.662-1.338 3-3 3H7c-1.662 0-3-1.338-3-3z"/><circle style="fill:#cc5e55" cx="48" cy="46" r="16"/><path style="fill:#fff" d="M46 38h4v12h-4zM46 54h4v4h-4z"/><path style="opacity:.2" d="M32.025 46.5a16 16.004 0 0 0-.025.496A16 16.004 0 0 0 48 63a16 16.004 0 0 0 16-16.004 16 16.004 0 0 0-.018-.492A16 16.004 0 0 1 48 62a16 16.004 0 0 1-15.975-15.5z"/></svg>
